X:127
T:Rory o' More #2
C:Joe Buchanan's Scottish Tome - Page 252.2
I:252 2
Z:Carl Allison
R:Jig
L:1/8
M:6/8
K:A
|: f | eAA cBA | eAA A2 f | edc cBA | GBB Bcd |
eAA cBA | eAA fed | cee efg | aec A2 :|
|: e | ggf edc | dcB A2 G | F2 G A2 B | cfe efg/ |
agf edc | dcB A2 G | F2 G A2 B |1 fce e2 :|2 cAA A2 |]

